X: 78
T:Missa Allez regretz I / Credo
N: Derived from Jos0701c-Missa_Allez_regretz_I-Credo.krn
C: Josquin des Prez
%%abc-version 2.0
%%abcx-abcm2ps-target-version 5.9.1 (29 Sep 2008)
%%abc-creator hum2abc beta
%%abcx-conversion-date 2019/02/12 16:15:42
%%abc-edited-by Jesse Rodin
%%abc-edited-by Jesse Rodin; Victoria Chang 2012/02/24
%%abcx-initial-encoding-date 2012/02/24/
%%humdrum-veritas 1906516976
%%humdrum-veritas-data 2573286958
%%linebreak <none>
%%barnumbers 0
L: 1/4
M: 4/2
Q: 1/2=120
%%staves [1 2 3 4]
V: 1 clef=treble
V: 2 clef=treble-8
V: 3 clef=treble-8
V: 4 clef=bass
K: F
[V:1] F4F2G2 | 
[V:2] F4A2B2 | 
[V:3] z8 | 
[V:4] z8 | 
[V:1] A2c2c2B2 | 
[V:2] c2c2d4 | 
[V:3] z8 | 
[V:4] z8 | 
[V:1] c2A2A2G2 | 
[V:2] c2c4B2 | 
[V:3] z8 | 
[V:4] z2F,2F,2G,2 | 
[V:1] F2E2D2D2 | 
[V:2] c4z4 | 
[V:3] z8 | 
[V:4] A,2C2C2B,2 | 
[V:1] C2E4F2 | 
[V:2] z2c3BA2 | 
[V:3] z8 | 
[V:4] C2C,2C,2D,2 | 
[V:1] G2D3EF2 | 
[V:2] G2B4A2 | 
[V:3] z8 | 
[V:4] E,2G,2G,2F,2 | 
[V:1] D2G4^F2 | 
[V:2] B2AGA4 | 
[V:3] z8 | 
[V:4] G,4D,4 | 
[V:1] G4c3B | 
[V:2] G4z4 | 
[V:3] z8 | 
[V:4] z4A,3G, | 
[V:1] A2G2F2E2 | 
[V:2] c3BA2G2 | 
[V:3] z8 | 
[V:4] F,2E,2F,2C,2 | 
[V:1] F2z2z4 | 
[V:2] F2E2F4 | 
[V:3] z8 | 
[V:4] D,2C,2F,4 | 
[V:1] A3AA2A2 | 
[V:2] f3ff2f2 | 
[V:3] c3cc2c2 | 
[V:4] F,3F,F,2F,2 | 
[V:1] G2G2A2c2 | 
[V:2] e2e2f2f2 | 
[V:3] c2c2A2A2 | 
[V:4] C,2C,2F,2F,2 | 
[V:1] B2G4G2 | 
[V:2] d2d2d4 | 
[V:3] G2B4AG | 
[V:4] G,2G,2G,4 | 
[V:1] A2A2F2F2 | 
[V:2] d2d2A2A2 | 
[V:3] F8 | 
[V:4] D,2D,2D,2D,2 | 
[V:1] E4D2D2 | 
[V:2] c4d2d2 | 
[V:3] G2G2B4 | 
[V:4] C,4G,,2G,,2 | 
[V:1] F2F2F4 | 
[V:2] d2d2d4 | 
[V:3] A8 | 
[V:4] D,2D,2D,4 | 
[V:1] G3GG2F2 | 
[V:2] B3BB2F2 | 
[V:3] G4G2AB | 
[V:4] _E,3E,E,2D,2 | 
[V:1] E2E2F2F2 | 
[V:2] G2G2z4 | 
[V:3] c2c2B4- | 
[V:4] C,2C,2D,2B,,2 | 
[V:1] G2G2A4 | 
[V:2] z2c2d2_e2 | 
[V:3] B2AGF2c2 | 
[V:4] _E,4D,2C,2 | 
[V:1] z2F4E2 | 
[V:2] d2B2c3B | 
[V:3] BAGFG4 | 
[V:4] D,4C,4 | 
[V:1] F4z2A2 | 
[V:2] A8 | 
[V:3] F8- | 
[V:4] F,4z2C2 | 
[V:1] A2A2A2A2 | 
[V:2] z2c2c2c2 | 
[V:3] F8- | 
[V:4] C2C2A,2A,2 | 
[V:1] A4A2A2 | 
[V:2] A2A2z2F2 | 
[V:3] F8- | 
[V:4] z2F,2F,2F,2 | 
[V:1] A2A2A4 | 
[V:2] F2F2D2D2 | 
[V:3] F8 | 
[V:4] D,2D,2A,4 | 
[V:1] A2A2F2F2 | 
[V:2] A8 | 
[V:3] z8 | 
[V:4] F,2F,2D,2D,2 | 
[V:1] B2A2G4 | 
[V:2] G2A2B2c2 | 
[V:3] z8 | 
[V:4] G,2F,2G,2C,2 | 
[V:1] A3GF2E2 | 
[V:2] z8 | 
[V:3] z8 | 
[V:4] F,3G,A,B,C2 | 
[V:1] D2C2F2E2 | 
[V:2] z8 | 
[V:3] z8 | 
[V:4] F,2E,2D,2C,2 | 
[V:1] DCF3EE2 | 
[V:2] z8 | 
[V:3] z8 | 
[V:4] F,2A,2G,4 | 
[V:1] F4z2F2- | 
[V:2] z2A4F2 | 
[V:3] z4F3F | 
[V:4] F,4D,3D, | 
[V:1] F2E2F2F2 | 
[V:2] G2G2F2F2 | 
[V:3] c2c2c2c2 | 
[V:4] C,2C,2F,2F,2 | 
[V:1] F2F2F2F2 | 
[V:2] F2F2B2B2 | 
[V:3] d3dd2d2 | 
[V:4] B,,3B,,B,,2B,,2 | 
[V:1] E2E2E2E2 | 
[V:2] G2G2G2G2 | 
[V:3] c2c2c2BA | 
[V:4] C,2C,2C,2C,2 | 
[V:1] D2D2D2D2 | 
[V:2] F4F2F2 | 
[V:3] B2A2F2G2- | 
[V:4] D,3D,D,2B,,2 | 
[V:1] E2CCD2D2 | 
[V:2] E2E2D2D2 | 
[V:3] G2A4G2 | 
[V:4] C,2A,,2B,,4 | 
[V:1] C4z2c2 | 
[V:2] E8 | 
[V:3] A8- | 
[V:4] A,,8- | 
[V:1] c2c2A4 | 
[V:2] z2c2c2c2 | 
[V:3] A8 | 
[V:4] A,,8 | 
[V:1] BAGFE2C2 | 
[V:2] dd2dc2A2 | 
[V:3] z8 | 
[V:4] z8 | 
[V:1] D2F4E2 | 
[V:2] B2A2G4 | 
[V:3] z8 | 
[V:4] z8 | 
[V:1] F2D2DCB,A, | 
[V:2] F2f3edc | 
[V:3] z8 | 
[V:4] z8 | 
[V:1] B,4A,2A2- | 
[V:2] d2f3edc | 
[V:3] z8 | 
[V:4] z8 | 
[V:1] A2F2c4- | 
[V:2] d3cc2A2- | 
[V:3] z8 | 
[V:4] z8 | 
[V:1] c4A4 | 
[V:2] A2F2c4 | 
[V:3] z8 | 
[V:4] z2A,4F,2 | 
[V:1] G2A2F2G2 | 
[V:2] z2c2d2B2 | 
[V:3] z8 | 
[V:4] C2F,2D,2E,2 | 
[V:1] E8 | 
[V:2] c8 | 
[V:3] z8 | 
[V:4] C,8 | 
[V:1] z2F2F2F2 | 
[V:2] z2c2c2c2 | 
[V:3] z4A4 | 
[V:4] z2F,2F,2F,2 | 
[V:1] F2F2A2A2 | 
[V:2] d2d2c2f2 | 
[V:3] A2A2A2A2 | 
[V:4] D,2D,2F,2F,2 | 
[V:1] G2G2A4 | 
[V:2] f2e2f4 | 
[V:3] B2B2A2A2 | 
[V:4] G,2G,2F,4 | 
[V:1] B2A2z4 | 
[V:2] e2f2z4 | 
[V:3] G2F2GFED | 
[V:4] z2D,2B,,4 | 
[V:1] E3EE2E2 | 
[V:2] c3cc2c2 | 
[V:3] C8 | 
[V:4] A,,3A,,A,,2A,,2 | 
[V:1] F4E2A2- | 
[V:2] d4c2A2 | 
[V:3] z8 | 
[V:4] D,E,F,G,A,2F,2 | 
[V:1] A2G2A4 | 
[V:2] B4A4 | 
[V:3] z4c4 | 
[V:4] G,4F,4 | 
[V:1] G4B4 | 
[V:2] d4d4 | 
[V:3] B3AG2d2- | 
[V:4] G,4G,4 | 
[V:1] A2A4G2 | 
[V:2] f4z2d2- | 
[V:3] d2c3AB2 | 
[V:4] D,2F,4G,2 | 
[V:1] A2F4E2 | 
[V:2] d2c6 | 
[V:3] F4G4 | 
[V:4] D,2F,2C,4 | 
[V:1] F8 ||  
[V:2] A8 ||  
[V:3] !fermata!F8 ||  
[V:4] F,8 ||  
[V:1]  [K:F] [K:clef=treble][M:4/2]A3AA2A2 | 
[V:2]  [K:F] [K:clef=treble-8][M:4/2]F3FF2F2 | 
[V:3]  [K:F] [K:clef=treble-8][M:4/2]z8 | 
[V:4]  [K:F] [K:clef=bass][M:4/2]z8 | 
[V:1] G2G2A2A2 | 
[V:2] c2c2c2c2 | 
[V:3] z8 | 
[V:4] z8 | 
[V:1] F2B3AGF | 
[V:2] d8 | 
[V:3] z8 | 
[V:4] z8 | 
[V:1] E2A4GF | 
[V:2] c2c4BA | 
[V:3] z8 | 
[V:4] z8 | 
[V:1] GFEDE4 | 
[V:2] BAGFG4 | 
[V:3] z8 | 
[V:4] z8 | 
[V:1] F4z2F2- | 
[V:2] F4z2A2- | 
[V:3] z4z2F2- | 
[V:4] z4z2F,2- | 
[V:1] F2E2E2F2- | 
[V:2] A2c2c2c2- | 
[V:3] F2G2G2A2- | 
[V:4] F,2C,2C,2F,2- | 
[V:1] FGE2F4 | 
[V:2] c2c2F4 | 
[V:3] AGc4=B2 | 
[V:4] F,E,C,2D,4 | 
[V:1] E4F3F | 
[V:2] G4A3A | 
[V:3] c4c3c | 
[V:4] C,4F,3F, | 
[V:1] E2F2F2E2 | 
[V:2] G2F2G2G2 | 
[V:3] c2c2c2c2 | 
[V:4] C,2F,2C,2C,2 | 
[V:1] F8 ||  
[V:2] F8 ||  
[V:3] c8 ||  
[V:4] F,8 ||  
[V:1]  [K:F] [K:clef=treble][M:4/2]A4A2A2 | 
[V:2]  [K:F] [K:clef=treble-8][M:4/2]f4f2f2 | 
[V:3]  [K:F] [K:clef=treble-8][M:4/2]c8 | 
[V:4]  [K:F] [K:clef=bass][M:4/2]F,4F,2F,2 | 
[V:1] G2G2G2G2 | 
[V:2] d2d2d2d2 | 
[V:3] B4B4 | 
[V:4] G,2G,2G,2G,2 | 
[V:1] A4F4 | 
[V:2] d2d2d4 | 
[V:3] A4A4 | 
[V:4] D,2D,2D,4 | 
[V:1] E2F2F2F2 | 
[V:2] z2d2c2c2 | 
[V:3] A4A4 | 
[V:4] z2D,2F,2F,2 | 
[V:1] E2E2F2A2- | 
[V:2] c2c2c2d2 | 
[V:3] G4A4 | 
[V:4] C,2C,2F,2D,2- | 
[V:1] AAA2A2A2 | 
[V:2] A2d2d2c2 | 
[V:3] F2D2E4 | 
[V:4] D,D,D,2A,,2A,,2 | 
[V:1] F2F2D2D2 | 
[V:2] d2d2B2B2 | 
[V:3] D3EF2G2 | 
[V:4] B,,2B,,2B,,2B,,2 | 
[V:1] C2E4D2 | 
[V:2] c4c2A2- | 
[V:3] A3G/F/ECF2 | 
[V:4] A,,3B,,C,2D,2 | 
[V:1] C2F4E2 | 
[V:2] A2d2c4 | 
[V:3] A2B2G4 | 
[V:4] F,2B,,2C,4 | 
[V:1] F4z2c2 | 
[V:2] A3GF4 | 
[V:3] F8 | 
[V:4] z2C2C2C2 | 
[V:1] c2c2A2A2 | 
[V:2] z2f4f2 | 
[V:3] z8 | 
[V:4] A,2A,2F,2F,2 | 
[V:1] F2F2D2D2 | 
[V:2] f2d2d2B2 | 
[V:3] z8 | 
[V:4] D,2D,2G,3G, | 
[V:1] G2G2G2G2 | 
[V:2] B2G2G2c2- | 
[V:3] z8 | 
[V:4] G,2G,2E,2E,2 | 
[V:1] E2E2C4 | 
[V:2] ccc2c2A2 | 
[V:3] z8 | 
[V:4] C,4F,4- | 
[V:1] z2c2c2B2- | 
[V:2] A2F4G2 | 
[V:3] z8 | 
[V:4] F,4z4 | 
[V:1] BAA4G2 | 
[V:2] A2c2B3B | 
[V:3] z8 | 
[V:4] z8 | 
[V:1] A4z4 | 
[V:2] A2A4G2 | 
[V:3] z8 | 
[V:4] z2F,4E,2 | 
[V:1] z4z2A2- | 
[V:2] A2G2A4 | 
[V:3] z4z2f2- | 
[V:4] F,2E,2F,3E, | 
[V:1] A2c2c2c2- | 
[V:2] F2G2A2F2 | 
[V:3] f2e2c4 | 
[V:4] D,2C,2F,2A,2 | 
[V:1] c2B2c2F2- | 
[V:2] z2B2G2A2 | 
[V:3] d4c4 | 
[V:4] G,4C,2F,2 | 
[V:1] F2E2F2F2 | 
[V:2] G4F4- | 
[V:3] c3cc2c2 | 
[V:4] C,4F,2F,2 | 
[V:1] F4A3A | 
[V:2] F4f3f | 
[V:3] d2d2c2A2 | 
[V:4] D,4F,3F, | 
[V:1] GFEDC2F2 | 
[V:2] dcBAG2F2 | 
[V:3] BAGFE2F2- | 
[V:4] B,,2B,,2C,2D,2 | 
[V:1] F2G2A2F2- | 
[V:2] A2c4B2 | 
[V:3] F2E2D2D2 | 
[V:4] D,2C,2F,4 | 
[V:1] F2E2F2z2 | 
[V:2] c4A2z2 | 
[V:3] C4F2G2 | 
[V:4] G,4F,2z2 | 
[V:1] F4E2F2 | 
[V:2] F4G2D2 | 
[V:3] A3Bc2d2- | 
[V:4] D,4C,2B,,2 | 
[V:1] F2E2F2D2 | 
[V:2] D2G2F2G2 | 
[V:3] d2c2A2B2 | 
[V:4] B,,2C,2D,2B,,2 | 
[V:1] A2A2G4 | 
[V:2] F2f4e2 | 
[V:3] F4G4 | 
[V:4] D,2F,2C,4 | 
[V:1] A4z2A2 | 
[V:2] f4z2f2 | 
[V:3] F8- | 
[V:4] F,4z2D,2 | 
[V:1] A2A2B2B2 | 
[V:2] f2f2d2d2 | 
[V:3] F8- | 
[V:4] D,2D,2B,,2B,,2 | 
[V:1] A2A2A4 | 
[V:2] d2d2d4 | 
[V:3] F8- | 
[V:4] D,2D,2D,4 | 
[V:1] A2A2F2F2 | 
[V:2] c2c2c2c2 | 
[V:3] F8 | 
[V:4] A,3A,A,2A,2 | 
[V:1] B4A4 | 
[V:2] d4d2c2- | 
[V:3] z8 | 
[V:4] G,4F,4 | 
[V:1] z2A2A2A2 | 
[V:2] c2c4c2 | 
[V:3] z8 | 
[V:4] z8 | 
[V:1] A2A3GG2- | 
[V:2] c2c3GB2 | 
[V:3] z8 | 
[V:4] z8 | 
[V:1] G2^F2G4 | 
[V:2] A4G4 | 
[V:3] z8 | 
[V:4] z8 | 
[V:1] z2C2C2C2 | 
[V:2] z8 | 
[V:3] z8 | 
[V:4] z2A,4A,2 | 
[V:1] CDEFG2A2 | 
[V:2] z8 | 
[V:3] z8 | 
[V:4] A,2A,2G,2F,2 | 
[V:1] B2A2GFF2- | 
[V:2] z8 | 
[V:3] z8 | 
[V:4] G,2C2B,A,G,F, | 
[V:1] F2E2F4 | 
[V:2] z8 | 
[V:3] z8 | 
[V:4] G,4F,4 | 
[V:1] z2A4A2 | 
[V:2] z2f3ff2 | 
[V:3] z2F3FF2 | 
[V:4] z2D,4D,2 | 
[V:1] A2B2A2A2 | 
[V:2] f2d3cf2- | 
[V:3] F2G2A2c2- | 
[V:4] D,2G,2F,2A,2 | 
[V:1] B2B2A4 | 
[V:2] f2e2f4 | 
[V:3] c2B2c4 | 
[V:4] G,2G,2F,4 | 
[V:1] z2A2A2A2 | 
[V:2] z8 | 
[V:3] z2F2F2F2 | 
[V:4] z8 | 
[V:1] A2G2F2E2 | 
[V:2] z8 | 
[V:3] F2G2A2c2 | 
[V:4] z8 | 
[V:1] D2D2C2F2 | 
[V:2] z4F4 | 
[V:3] c2=B2c4 | 
[V:4] z8 | 
[V:1] F2F2F2G2 | 
[V:2] A3AA2B2 | 
[V:3] z8 | 
[V:4] z8 | 
[V:1] A2c2c2B2 | 
[V:2] c2c2d4 | 
[V:3] z8 | 
[V:4] z2F,2F,2G,2 | 
[V:1] c4C2D2 | 
[V:2] c2F3ED2 | 
[V:3] z8 | 
[V:4] A,2C2C2B,2 | 
[V:1] E2G4F2 | 
[V:2] C2E4F2 | 
[V:3] z2C4D2 | 
[V:4] C4C2A,2 | 
[V:1] G4z2A2- | 
[V:2] E3EE2F2 | 
[V:3] E2G4F2 | 
[V:4] G,3G,G,2D,2 | 
[V:1] AGG4^F2 | 
[V:2] z2c2d4 | 
[V:3] G4A4 | 
[V:4] _E,4D,4 | 
[V:1] G4z4 | 
[V:2] B2c2A2GF | 
[V:3] G4z4 | 
[V:4] _E,2C,2D,C,F,2- | 
[V:1] z4z2A2- | 
[V:2] G4F2A2- | 
[V:3] z4z2F2 | 
[V:4] F,2E,2F,2D,2 | 
[V:1] AAF2F2E2 | 
[V:2] AAA2B2c2 | 
[V:3] F2F2F2G2 | 
[V:4] D,2D,2D,2C,2 | 
[V:1] F2E2F2F2- | 
[V:2] F2G2F4 | 
[V:3] A2c3BB2 | 
[V:4] F,2C,2D,4 | 
[V:1] F2E2F4 | 
[V:2] G4F4- | 
[V:3] c4A4- | 
[V:4] C,4F,4 | 
[V:1] A3FBAGF | 
[V:2] F4z4 | 
[V:3] A4z4 | 
[V:4] z2C2B,2C2- | 
[V:1] E2F4E2 | 
[V:2] z8 | 
[V:3] z8 | 
[V:4] C2B,A,G,4 | 
[V:1] F4z2D2 | 
[V:2] z4z2B2- | 
[V:3] z4z2F2 | 
[V:4] F,4z2B,,2- | 
[V:1] D2D2F2E2 | 
[V:2] B2B2B2c2 | 
[V:3] F2F2F2G2 | 
[V:4] B,,2B,,2D,2C,2 | 
[V:1] F4A2G2 | 
[V:2] c2c2f2e2 | 
[V:3] A2c4B2 | 
[V:4] F,3E,F,2G,2 | 
[V:1] A2c3BAG | 
[V:2] f2F2G4 | 
[V:3] c4c4 | 
[V:4] F,4_E,4 | 
[V:1] F2B2A2G2 | 
[V:2] A2F3f2e | 
[V:3] d4c2B2 | 
[V:4] D,2B,,2F,2G,2 | 
[V:1] A2G3FF2- | 
[V:2] f2d4c2- | 
[V:3] A2B3FA2 | 
[V:4] D,2G,2D,2F,2 | 
[V:1] F2E2F4 |]  
[V:2] cBAGA4 |]  
[V:3] G4F4 |]  
[V:4] C,4F,4 |]  



